X:1
T:Heaven Will Protect an Honest Girl
M:4/4
L:1/8
K:G
 d^d| e=d GB d^c =cB| d^c =cA E2 AG| F^E FA dc A^A| B4- B z| d^d| e=d GB d^c =cB|\
 d^c =cA E2 AG| FA ed cF BA| G4- G z| GA| BG FE cA GE| BG FG E2 B^B|\
 ^c=B A^G =GA Bd| e^c BA d3 D| d^c ed BG =cB| E4- E2 z E| A^G BA FD ED|\
 B4- B z Bc| BF ^EF BA GF| GF GF GB ^AB| ^cB =A^G =GA eA| d4- d z Bc|\
 d^c ed BG =cB| E4- E z FG| A^G BA FD ED| B4- B z Bc| A^G Ac ec BA|\
 GF GB eB z G| FG ^GA ed cF| G4- G z||
